Front/img/common-section_sousmetier/illu-20.svg

<svg xmlns="http://www.w3.org/2000/svg" fill="none" viewBox="0 0 470 541"><path fill="#E1E1E1" d="M116 100C116 44.772 160.772 0 216 0h144c60.751 0 110 49.249 110 110v430H116V100z"/><path fill="#FF8139" d="M459 324v37a2 2 0 002 2h7a2 2 0 002-2v-37a2 2 0 00-2-2h-7a2 2 0 00-2 2z"/><path fill="#fff" d="M405 349h52v13h-52z"/><path fill="#C4C4C4" d="M404 361h55v2h-55zM404 348h55v2h-55z"/><path fill="#C4C4C4" d="M404 349v13.5h3c-.5-.833-1.5-3.3-1.5-6.5s1-6 1.5-7h-3z"/><path fill="#fff" d="M458.381 347.383h-32.145v-8.036h32.145z"/><path fill="#FF8139" d="M459 339.965h-34v-1.236h34zM459 348h-34v-1.236h34z"/><path fill="#FF8139" d="M459 347.383v-8.346h-1.855c.31.516.928 2.04.928 4.019 0 1.978-.618 3.709-.928 4.327H459z"/><path fill="#C5C5DD" d="M348 415.5V448h30.5v-32.5c0-6-2-16-15.5-16s-15 10.5-15 16z"/><path fill="#fff" d="M372 411.5c-.4-4.4-2.833-6.167-4-6.5l4.5-1c2 1.2 3.167 4.167 3.5 5.5l-4 2z"/><path fill="#C5C5DD" d="M383 395.5V448h30.5v-52.5c0-6-2-16-15.5-16s-15 10.5-15 16z"/><path fill="#fff" d="M407 391.5c-.4-4.4-2.833-6.167-4-6.5l4.5-1c2 1.2 3.167 4.167 3.5 5.5l-4 2z"/><path fill="#FF8139" d="M236 382v64a2 2 0 002 2h11.5a2 2 0 002-2v-64a2 2 0 00-2-2H238a2 2 0 00-2 2zM285 382v64a2 2 0 002 2h12a2 2 0 002-2v-64a2 2 0 00-2-2h-12a2 2 0 00-2 2z"/><path fill="#152D5D" d="M301 402v44a2 2 0 002 2h7a2 2 0 002-2v-44a2 2 0 00-2-2h-7a2 2 0 00-2 2z"/><path fill="#666A6A" d="M263.549 392.094l6.85 1.444-11.549 54.796-6.85-1.444z"/><path fill="#C4C4C4" d="M270.77 392l6.927 1.008-8.066 55.416-6.927-1.008z"/><path fill="#666A6A" d="M278.395 392l6.967.674-5.395 55.74-6.967-.674z"/><path fill="#E1E1E1" d="M236 460h234v73H236z"/><path fill="#C4C4C4" d="M224 280h246v11H224zM224 363h246v11H224zM224 447h246v11H224z"/><path fill="#E2BBA6" d="M181.176 394.745s-10.864-1.462-19.56-12.276c0 0 2.169 9.092-9.429 19.505-8.033 7.189-1.767 45.488 1.617 52.246 0 0-32.052 31.58-84.226 6.288 0 0 13.104-47.69 14.058-74.654 1.175-30.619 4.72-50.304 15.443-79.211 10.724-28.906 13.265-44.856 11.809-60.076-1.456-15.219-.723-39.049 26.107-44.806 26.83-5.758 30.003 25.792 30.003 25.792s2.37 40.341-8.184 49.583c-9.247 8.15-25.103-2.193-25.103-2.193s-3.675 18.714.583 25.322c0 0 5.874 6.719 20.383 12.496 15.153 6.008 17.583 50.064 25.616 58.134"/><path fill="#CEA999" d="M150.229 202.23c1.074 6.559 2.791 17.092 4.377 27.475-1.004-9.782-2.861-20.616-4.147-27.394l-.23-.081zM166.977 227.594l-12.371 2.112.623 9.412c.12 5.167-.291 9.312-1.567 11.275-5.341 8.24-7.47-11.014-11.888-10.594-4.418.421-6.477 5.447-3.304 14.018 3.173 8.571-8.234 10.954-9.218 15.76-.984 4.806-8.645 31.87 0 41.132l13.245-4.005a40.002 40.002 0 01-8.194-6.398c-4.257-6.609-.582-25.322-.582-25.322s15.845 10.343 25.103 2.193a12.057 12.057 0 002.008-2.323c5.272-7.38 6.025-26.113 6.175-30.129.151-4.015-.03-17.131-.03-17.131z"/><path fill="#292289" d="M100.706 302.168s-4.8 4.005-9.128 16.02c-4.327 12.016 6.929-6.918 6.929-6.918l1.325-6.699.874-2.403z"/><path fill="#F4EFEF" d="M152.498 450.633s15.245 54.657 14.382 89.06H50s1-27.194 5.5-45.194c4.5-18 15.975-41.213 15.975-41.213s44.533 22.819 81.023-2.653z"/><path fill="#152D5D" d="M259 373.5c-15 2.5-51.045 11.901-69.049-5.331-13.877-13.277-20.082-49.322-35.275-55.37a70.694 70.694 0 01-15.614-8.401c-23.797 7.84-34.511 5.077-39.24.151-.252.691-7.635 6.527-11.822 17.451-5 31-6.835 44.727-7.94 75.336-1.004 26.964-8.595 55.951-8.595 55.951 7.34 33.452 82.338.931 82.338.931-2.952-7.85-9.62-45.057-1.617-52.246 11.598-10.413 9.429-19.505 9.429-19.505 8.696 10.834 22.251 17.022 22.251 17.022C204.421 411.274 248 394.5 259 390.902V373.5z"/><path fill="#00181B" d="M259.001 390.999v-5.5s-35 16.472-57.5 13.989c-7.5-.828-16.328-7.209-25.677-9.983-9.348-2.773-18.506-20.485-18.506-20.485-.803 18.373-12.883 21.266-20.233 36.245-5.452 11.115-1.526 40.472.864 54.89 9.348-3.124 15.855-5.938 15.855-5.938-2.952-7.85-9.62-45.057-1.617-52.246 11.598-10.413 9.429-19.504 9.429-19.504 8.696 10.833 22.251 17.021 22.251 17.021 20.555 11.815 64.634-4.989 75.134-8.489z"/><path fill="#000" d="M103.678 464.07c.18 1.212.351 2.393.522 3.565-.171-1.172-.342-2.353-.522-3.565zM103.536 463.15c0-.321-.09-.641-.14-1.002.04.361.1.681.14 1.002z" opacity=".3"/><path fill="#E1E1E1" d="M104.136 521L100 540h10c-2-9-5.227-16.833-5.864-19z"/><path fill="#C4C4C4" d="M104 521l-4 19h-8l4-14.5-10.5-6c4.8.8 14.333 1.333 18.5 1.5z"/><path fill="#2F2417" d="M162 240.002c7.2-6 9.333-16.167 9.5-20.5.988-5.6-2.588-9.334-4.5-10.5-16-13.5-36-12-47.5-6s-17.5 14.5-20 21.5-3.5 11.5-3.5 19v.001c0 7.5 0 17.499-6 26.499-9.83 14.743-4.5 21.5-2.5 29.5s-5 13.5-5 20.5c0 8.746 4.5 11 10 11s11.5-1 13.5 5.5 6.5 9.5 10.5 9.5 12.5-4.5 13-13 6-15.5 12.5-20.5c5.2-4 14.166.666 18 3.5 3.5-5 .5-8-4-13s-6.5-3.5-6.5-13c0-6.5-5.5-4.5-3.5-15.5 1.145-6.3-4-13-8-23-3.2-8 5.333-8.167 8-5.5 2.5 1 7 1.5 16-6z"/><path fill="#4F3C27" d="M163.5 214.501c4.8 2.8 5.5 11.333 5.5 15.5 2-4 3-10.5 3-13s0-5-8-11-25-10-37.5-6-22.5 12-27 24.5-3.5 17.5-3.5 25.5-3 13.5-5 18-5 7.5-6.5 14.5.5 9 2.5 16.5-1.5 11.5-2.5 13.5-4 6.5-1 13.5 10.5 4.5 15 5 6 2.5 8 7c1.6 3.6 4 5.833 5 6.5.667-2.834 1.6-9.5 0-13.5-2-5-6.5-13-1.5-22s1.5-15-2-27.5 5.5-12 2-30.5 5.5-33 19.5-39 28-1 34 2.5z"/><path fill="#fff" d="M144.887 354.501c-14.754-9.111-45.924-10.543-75.493-9.403C29.897 346.622 1 380.702 1 420.228v119.773h280.779c.167-4.333.4-19.7 0-46.5-.399-26.8-19.484-37.5-28.977-39.5h-62.451c.8-61.2-13.077-79.5-45.464-99.5z"/><path fill="#F4EFEF" d="M251.424 441.818c-8.76 1.448-46.74 8.702-61.073 12.172l48.398.929c20.591 0 20.688 19.385 20.688 32.243v52.89h35.606c-3.695-22.39-12.457-69.899-14.358-79.208-2.375-11.635-15.016-21.379-29.261-19.026z"/><path fill="#F4EFEF" d="M221.325 432.407l-31.235 3.097.263 18.485 51.204-10.399c-.274-11.507-13.612-12.273-20.232-11.183z"/><path fill="#FF8139" d="M264 247l-9.5 33h-19l-8.5-33h37z"/><path fill="#D3662F" d="M264 247h-37l35 7.5 2-7.5z"/><rect width="41" height="8" fill="#FF8139" rx="2" transform="matrix(-1 0 0 1 266 239)"/><path fill="#00B67A" d="M265 225.941c-2.8.8-6.833 9.334-8.5 13.5H255c2.167-4.166 6.6-12.9 7-14.5.5-2-4-6-5.5-13.5-1.2-6 2.833-10 5.5-11.5 2.333 2.5 6.3 10.3 7.5 9.5 1.2-.8-3-7-5.5-11 4.4-3.6 11.5-4.999 14-4.999 1 3 3.3 8.799 4.5 7.999 1.2-.8-.5-5.666-1.5-7.999 6.8-.8 14.167-.334 17 0l-3.5 15-7.5-2.501c-3-1-4.5.5-3.5 1 .8.4 6.667 3.167 9.5 4.5-1.2 4.4-4.5 8.5-6 10-3-1.666-9.3-5.2-10.5-6-1.5-1-4 0-2.5 1 1.2.8 6.833 5.334 9.5 7.5-9.5 5-15 1-18.5 2zM230.814 220.105c3.972 1.12 9.694 13.063 12.058 18.895H245c-3.074-5.832-9.363-18.055-9.93-20.294-.71-2.8 5.674-8.398 7.802-18.895 1.702-8.398-4.019-13.996-7.802-16.096-3.31 3.499-8.937 14.416-10.64 13.297-1.702-1.12 4.256-9.798 7.803-15.396-6.242-5.039-16.314-6.998-19.861-6.998-1.419 4.199-4.681 12.316-6.384 11.197-1.702-1.12.71-7.931 2.128-11.197-9.646-1.119-20.097-.466-24.116 0l4.965 20.994 10.64-3.499c4.255-1.4 6.383.699 4.965 1.399-1.135.56-9.458 4.432-13.477 6.299 1.702 6.158 6.384 11.896 8.512 13.996 4.255-2.333 13.193-7.278 14.895-8.398 2.128-1.399 5.674 0 3.547 1.4-1.703 1.12-9.694 7.464-13.477 10.497 13.477 6.998 21.279 1.4 26.244 2.799z"/><path fill="#999696" d="M260.876 316.27l28.531 3.17-7.608 57.061-28.531-3.17 7.608-57.061z"/><path fill="#C4C4C4" d="M259.608 315l28.531 3.17-7.608 57.062-28.531-3.17L259.608 315z"/><path fill="#fff" d="M261.509 316.902l24.093 2.536-6.974 50.088-24.093-2.536 6.974-50.088z"/><path fill="#CEA999" stroke="#CEA999" d="M266 368c-.919 2.144-4.5 5-7 6v17c8-1.5 8.5-1.5 11.5-1.5 8 0 10.5-1 16-3.5 3.053-1.388 7-4.5 7-6.5s-1.5-5-.5-7.5.5-5-1-7-3.5-4-3.5-7.5c0-2.8-1.5-5.5-3-7l-1 10.5c0 3.6-3 7.5-9.5 5.5-3.5-1.077-4.5-3.5-4.5-5.5 0-2.5 3-8.5 1.5-8.5s-3.5 2-4.5 6.5 0 5.5-1.5 9z"/><path fill="#fff" d="M309 115h161v132H309z"/><path fill="#E1E1E1" d="M315 122h155v117H315z"/><path fill="#D8D8D8" d="M326 238.5l60-116h44.5l-60.5 116h-44zM440.5 122.5L380 239h11l61-116.5h-11.5z"/><path fill="#fff" d="M443 246h10v26h-10z"/><path fill="#fff" d="M448.5 270.999c-23.6-.4-42.167 5.833-48.5 9h69.5v-7.5c-1.333-.5-7.4-1.5-21-1.5z"/><path fill="#FF8139" d="M91 99l17.5-61h14l7.5 42.5L91 99z"/><path fill="#FFD300" d="M115.5 91.5c-3.6 2.4-10.167 2.333-13 2l19-9c-.5 1.333-2.4 4.6-6 7z"/><path stroke="#fff" d="M116 0v51.055M150 0v138"/><path fill="#FFD300" d="M150 160c-3.6 2.4-10.167 2.333-13 2l19-9c-.5 1.333-2.4 4.6-6 7z"/><path fill="#FF8139" d="M127 167l17.5-61h14l7.5 42.5-39 18.5z"/><path fill="#fff" d="M198 41h66v92h-66z"/><path fill="#E1E1E1" d="M206 52h50v70h-50z"/><path fill="#272E80" d="M233 81.5c-1.2-10-18.5-23.833-27-29.5v51c9.5-3 28.2-11.5 27-21.5z"/><path fill="#FF8139" d="M240.5 85c-4.8-10 8.333-16.5 15.5-18.5V122h-28.5c20.5-9 19-24.5 13-37z"/><path stroke="#000" d="M234.5 122.001c-5.333-7-16.5-24.4-18.5-38-2-13.6 25.5 1.667 39.5 11"/><path fill="#FFD300" d="M274.054 329.898c-1.036-.158-1.931.021-2.686.537-.748.518-1.328 1.384-1.738 2.599l5.024.766-.259 1.697-5.189-.792-.098.493-.093.606-.043.433 4.495.685-.257 1.686-4.308-.657c.121 2.363 1.283 3.713 3.486 4.049 1.05.16 2.161.097 3.332-.191l-.341 2.237c-1.03.301-2.185.354-3.463.159-1.77-.27-3.135-.974-4.097-2.113-.953-1.137-1.459-2.65-1.517-4.538l-1.675-.255.257-1.686 1.499.229.04-.411.062-.408.131-.713-1.498-.228.259-1.697 1.652.252c.561-1.801 1.483-3.141 2.767-4.02 1.284-.879 2.815-1.182 4.592-.911 1.469.224 2.735.747 3.797 1.571l-1.24 1.919c-1.046-.731-2.01-1.163-2.891-1.298z"/></svg>

<svg width="470" height="541" viewBox="0 0 470 541" fill="none" xmlns="http://www.w3.org/2000/svg">
<path d="M116 100C116 44.7715 160.772 0 216 0H360C420.751 0 470 49.2487 470 110V540H116V100Z" fill="#E1E1E1"/>
<path d="M459 324V361C459 362.105 459.895 363 461 363H468C469.105 363 470 362.105 470 361V324C470 322.895 469.105 322 468 322H461C459.895 322 459 322.895 459 324Z" fill="#FF8139"/>
<rect x="405" y="349" width="52" height="13" fill="white"/>
<rect x="404" y="361" width="55" height="2" fill="#C4C4C4"/>
<rect x="404" y="348" width="55" height="2" fill="#C4C4C4"/>
<path d="M404 349V362.5H407C406.5 361.667 405.5 359.2 405.5 356C405.5 352.8 406.5 350 407 349H404Z" fill="#C4C4C4"/>
<rect x="458.381" y="347.383" width="32.1455" height="8.03636" transform="rotate(-180 458.381 347.383)" fill="white"/>
<rect x="459" y="339.965" width="34" height="1.23636" transform="rotate(-180 459 339.965)" fill="#FF8139"/>
<rect x="459" y="348" width="34" height="1.23636" transform="rotate(-180 459 348)" fill="#FF8139"/>
<path d="M459 347.383L459 339.037L457.145 339.037C457.455 339.553 458.073 341.077 458.073 343.056C458.073 345.034 457.455 346.765 457.145 347.383L459 347.383Z" fill="#FF8139"/>
<path d="M348 415.5V448H378.5V415.5C378.5 409.5 376.5 399.5 363 399.5C349.5 399.5 348 410 348 415.5Z" fill="#C5C5DD"/>
<path d="M372 411.5C371.6 407.1 369.167 405.333 368 405L372.5 404C374.5 405.2 375.667 408.167 376 409.5L372 411.5Z" fill="white"/>
<path d="M383 395.5V448H413.5V395.5C413.5 389.5 411.5 379.5 398 379.5C384.5 379.5 383 390 383 395.5Z" fill="#C5C5DD"/>
<path d="M407 391.5C406.6 387.1 404.167 385.333 403 385L407.5 384C409.5 385.2 410.667 388.167 411 389.5L407 391.5Z" fill="white"/>
<path d="M236 382V446C236 447.105 236.895 448 238 448H249.5C250.605 448 251.5 447.105 251.5 446V382C251.5 380.895 250.605 380 249.5 380H238C236.895 380 236 380.895 236 382Z" fill="#FF8139"/>
<path d="M285 382V446C285 447.105 285.895 448 287 448H299C300.105 448 301 447.105 301 446V382C301 380.895 300.105 380 299 380H287C285.895 380 285 380.895 285 382Z" fill="#FF8139"/>
<path d="M301 402V446C301 447.105 301.895 448 303 448H310C311.105 448 312 447.105 312 446V402C312 400.895 311.105 400 310 400H303C301.895 400 301 400.895 301 402Z" fill="#152D5D"/>
<rect x="263.549" y="392.094" width="7" height="56" transform="rotate(11.901 263.549 392.094)" fill="#666A6A"/>
<rect x="270.77" y="392" width="7" height="56" transform="rotate(8.2814 270.77 392)" fill="#C4C4C4"/>
<rect x="278.395" y="392" width="7" height="56" transform="rotate(5.52849 278.395 392)" fill="#666A6A"/>
<rect x="236" y="460" width="234" height="73" fill="#E1E1E1"/>
<rect x="224" y="280" width="246" height="11" fill="#C4C4C4"/>
<rect x="224" y="363" width="246" height="11" fill="#C4C4C4"/>
<rect x="224" y="447" width="246" height="11" fill="#C4C4C4"/>
<path d="M181.176 394.745C181.176 394.745 170.312 393.283 161.616 382.469C161.616 382.469 163.785 391.561 152.187 401.974C144.154 409.163 150.42 447.462 153.804 454.22C153.804 454.22 121.752 485.8 69.5781 460.508C69.5781 460.508 82.6819 412.818 83.6358 385.854C84.8107 355.235 88.3552 335.55 99.0792 306.643C109.803 277.737 112.344 261.787 110.888 246.567C109.432 231.348 110.165 207.518 136.995 201.761C163.825 196.003 166.998 227.553 166.998 227.553C166.998 227.553 169.368 267.894 158.814 277.136C149.567 285.286 133.711 274.943 133.711 274.943C133.711 274.943 130.036 293.657 134.294 300.265C134.294 300.265 140.168 306.984 154.677 312.761C169.83 318.769 172.26 362.825 180.293 370.895" fill="#E2BBA6"/>
<path d="M150.229 202.23C151.303 208.789 153.02 219.322 154.606 229.705C153.602 219.923 151.745 209.089 150.459 202.311L150.229 202.23Z" fill="#CEA999"/>
<path d="M166.977 227.594L154.606 229.706L155.229 239.118C155.349 244.285 154.938 248.43 153.662 250.393C148.321 258.633 146.192 239.379 141.774 239.799C137.356 240.22 135.297 245.246 138.47 253.817C141.643 262.388 130.236 264.771 129.252 269.577C128.268 274.383 120.607 301.447 129.252 310.709L142.497 306.704C139.498 304.936 136.743 302.785 134.303 300.306C130.046 293.697 133.721 274.984 133.721 274.984C133.721 274.984 149.566 285.327 158.824 277.177C159.59 276.491 160.265 275.71 160.832 274.854C166.104 267.474 166.857 248.741 167.007 244.725C167.158 240.71 166.977 227.594 166.977 227.594Z" fill="#CEA999"/>
<path d="M100.706 302.168C100.706 302.168 95.9061 306.173 91.5784 318.188C87.2506 330.204 98.5068 311.27 98.5068 311.27L99.8323 304.571L100.706 302.168Z" fill="#292289"/>
<path d="M152.498 450.633C152.498 450.633 167.743 505.29 166.88 539.693H64.9458H50C50 539.693 51 512.499 55.5 494.499C60 476.499 71.4753 453.286 71.4753 453.286C71.4753 453.286 116.008 476.105 152.498 450.633Z" fill="#F4EFEF"/>
<path d="M259 373.5C244 376 207.955 385.401 189.951 368.169C176.074 354.892 169.869 318.847 154.676 312.799C149.138 310.664 143.892 307.842 139.062 304.398C115.265 312.238 104.551 309.475 99.8212 304.549C99.5702 305.24 92.1869 311.076 87.9997 322C82.9997 353 81.1647 366.727 80.0601 397.336C79.056 424.3 71.4648 453.287 71.4648 453.287C78.805 486.739 153.803 454.218 153.803 454.218C150.851 446.368 144.183 409.161 152.186 401.972C163.784 391.559 161.615 382.467 161.615 382.467C170.311 393.301 183.866 399.489 183.866 399.489C204.421 411.274 248 394.5 259 390.902V373.5Z" fill="#152D5D"/>
<path d="M259.001 390.999V385.499C259.001 385.499 224.001 401.971 201.501 399.488C194.001 398.66 185.173 392.279 175.824 389.505C166.476 386.732 157.318 369.02 157.318 369.02C156.515 387.393 144.435 390.286 137.085 405.265C131.633 416.38 135.559 445.737 137.949 460.155C147.297 457.031 153.804 454.217 153.804 454.217C150.852 446.367 144.184 409.16 152.187 401.971C163.785 391.558 161.616 382.467 161.616 382.467C170.312 393.3 183.867 399.488 183.867 399.488C204.422 411.303 248.501 394.499 259.001 390.999Z" fill="#00181B"/>
<g style="mix-blend-mode:multiply" opacity="0.3">
<path d="M103.678 464.07C103.858 465.282 104.029 466.463 104.2 467.635C104.029 466.463 103.858 465.282 103.678 464.07Z" fill="black"/>
</g>
<g style="mix-blend-mode:multiply" opacity="0.3">
<path d="M103.536 463.15C103.536 462.829 103.446 462.509 103.396 462.148C103.436 462.509 103.496 462.829 103.536 463.15Z" fill="black"/>
</g>
<path d="M104.136 521L100 540H110C108 531 104.773 523.167 104.136 521Z" fill="#E1E1E1"/>
<path d="M104 521L100 540H92L96 525.5L85.5 519.5C90.3 520.3 99.8333 520.833 104 521Z" fill="#C4C4C4"/>
<path d="M162 240.002C169.2 234.002 171.333 223.835 171.5 219.502C172.488 213.902 168.912 210.168 167 209.002C151 195.502 131 197.002 119.5 203.002C108 209.002 102 217.502 99.5 224.502C96.9996 231.502 95.9998 236.002 95.9998 243.502V243.503C95.9998 251.003 95.9998 261.002 89.9997 270.002C80.1699 284.745 85.4994 291.502 87.4998 299.502C89.5001 307.502 82.5 313.002 82.5 320.002C82.5 328.748 87 331.002 92.5 331.002C98 331.002 104 330.002 106 336.502C108 343.002 112.5 346.002 116.5 346.002C120.5 346.002 129 341.502 129.5 333.002C130 324.502 135.5 317.502 142 312.502C147.2 308.502 156.166 313.168 160 316.002C163.5 311.002 160.5 308.002 156 303.002C151.5 298.002 149.5 299.502 149.5 290.002C149.5 283.502 144 285.502 146 274.502C147.145 268.202 142 261.502 138 251.502C134.8 243.502 143.333 243.335 146 246.002C148.5 247.002 153 247.502 162 240.002Z" fill="#2F2417"/>
<path d="M163.5 214.501C168.3 217.301 169 225.834 169 230.001C171 226.001 172 219.501 172 217.001C172 214.501 172 212.001 164 206.001C156 200.001 139 196.001 126.5 200.001C114 204.001 104 212.001 99.5005 224.501C95.0005 237.001 96.0005 242.001 96.0005 250.001C96.0005 258.001 93.0005 263.501 91.0005 268.001C89.0005 272.501 86.0005 275.501 84.5002 282.501C82.9999 289.501 85.0005 291.501 87.0005 299.001C89.0005 306.501 85.5002 310.501 84.5002 312.501C83.5002 314.501 80.5002 319.001 83.5002 326.001C86.5002 333.001 94.0002 330.501 98.5002 331.001C103 331.501 104.5 333.501 106.5 338.001C108.1 341.601 110.5 343.834 111.5 344.501C112.167 341.667 113.1 335.001 111.5 331.001C109.5 326.001 105 318.001 110 309.001C115 300.001 111.5 294.001 108 281.501C104.5 269.001 113.5 269.501 110 251.001C106.5 232.501 115.5 218.001 129.5 212.001C143.5 206.001 157.5 211.001 163.5 214.501Z" fill="#4F3C27"/>
<path d="M144.887 354.501C130.133 345.39 98.9628 343.958 69.3939 345.098C29.8967 346.622 1 380.702 1 420.228V540.001H281.779C281.946 535.668 282.179 520.301 281.779 493.501C281.38 466.701 262.295 456.001 252.802 454.001H190.351C191.151 392.801 177.274 374.501 144.887 354.501Z" fill="white"/>
<path d="M251.424 441.818C242.664 443.266 204.684 450.52 190.351 453.99L238.749 454.919C259.34 454.919 259.437 474.304 259.437 487.162V540.052H295.043C291.348 517.662 282.586 470.153 280.685 460.844C278.31 449.209 265.669 439.465 251.424 441.818Z" fill="#F4EFEF"/>
<path d="M221.325 432.407L190.09 435.504L190.353 453.989L241.557 443.59C241.283 432.083 227.945 431.317 221.325 432.407Z" fill="#F4EFEF"/>
<path d="M264 247L254.5 280H235.5L227 247H264Z" fill="#FF8139"/>
<path d="M264 247H227L262 254.5L264 247Z" fill="#D3662F"/>
<rect width="41" height="8" rx="2" transform="matrix(-1 0 0 1 266 239)" fill="#FF8139"/>
<path d="M265 225.941C262.2 226.741 258.167 235.275 256.5 239.441H255C257.167 235.275 261.6 226.541 262 224.941C262.5 222.941 258 218.941 256.5 211.441C255.3 205.441 259.333 201.441 262 199.941C264.333 202.441 268.3 210.241 269.5 209.441C270.7 208.641 266.5 202.441 264 198.441C268.4 194.841 275.5 193.442 278 193.442C279 196.442 281.3 202.241 282.5 201.441C283.7 200.641 282 195.775 281 193.442C287.8 192.642 295.167 193.108 298 193.442L294.5 208.442C293 207.942 289.4 206.741 287 205.941C284 204.941 282.5 206.441 283.5 206.941C284.3 207.341 290.167 210.108 293 211.441C291.8 215.841 288.5 219.941 287 221.441C284 219.775 277.7 216.241 276.5 215.441C275 214.441 272.5 215.441 274 216.441C275.2 217.241 280.833 221.775 283.5 223.941C274 228.941 268.5 224.941 265 225.941Z" fill="#00B67A"/>
<path d="M230.814 220.105C234.786 221.225 240.508 233.168 242.872 239H245C241.926 233.168 235.637 220.945 235.07 218.706C234.36 215.906 240.744 210.308 242.872 199.811C244.574 191.413 238.853 185.815 235.07 183.715C231.76 187.214 226.133 198.131 224.43 197.012C222.728 195.892 228.686 187.214 232.233 181.616C225.991 176.577 215.919 174.618 212.372 174.618C210.953 178.817 207.691 186.934 205.988 185.815C204.286 184.695 206.698 177.884 208.116 174.618C198.47 173.499 188.019 174.152 184 174.618L188.965 195.612C191.093 194.912 196.2 193.232 199.605 192.113C203.86 190.713 205.988 192.812 204.57 193.512C203.435 194.072 195.112 197.944 191.093 199.811C192.795 205.969 197.477 211.707 199.605 213.807C203.86 211.474 212.798 206.529 214.5 205.409C216.628 204.01 220.174 205.409 218.047 206.809C216.344 207.929 208.353 214.273 204.57 217.306C218.047 224.304 225.849 218.706 230.814 220.105Z" fill="#00B67A"/>
<path d="M260.876 316.27L289.407 319.44L281.799 376.501L253.268 373.331L260.876 316.27Z" fill="#999696"/>
<path d="M259.608 315L288.139 318.17L280.531 375.232L252 372.062L259.608 315Z" fill="#C4C4C4"/>
<path d="M261.509 316.902L285.602 319.438L278.628 369.526L254.535 366.99L261.509 316.902Z" fill="white"/>
<path d="M266 368C265.081 370.144 261.5 373 259 374V391C267 389.5 267.5 389.5 270.5 389.5C278.5 389.5 281 388.5 286.5 386C289.553 384.612 293.5 381.5 293.5 379.5C293.5 377.5 292 374.5 293 372C294 369.5 293.5 367 292 365C290.5 363 288.5 361 288.5 357.5C288.5 354.7 287 352 285.5 350.5L284.5 361C284.5 364.6 281.5 368.5 275 366.5C271.5 365.423 270.5 363 270.5 361C270.5 358.5 273.5 352.5 272 352.5C270.5 352.5 268.5 354.5 267.5 359C266.5 363.5 267.5 364.5 266 368Z" fill="#CEA999" stroke="#CEA999"/>
<rect x="309" y="115" width="161" height="132" fill="white"/>
<rect x="315" y="122" width="155" height="117" fill="#E1E1E1"/>
<path d="M326 238.5L386 122.5H430.5L370 238.5H326Z" fill="#D8D8D8"/>
<path d="M440.5 122.5L380 239H391L452 122.5H440.5Z" fill="#D8D8D8"/>
<rect x="443" y="246" width="10" height="26" fill="white"/>
<path d="M448.5 270.999C424.9 270.599 406.333 276.832 400 279.999H469.5V272.499C468.167 271.999 462.1 270.999 448.5 270.999Z" fill="white"/>
<path d="M91 99L108.5 38H122.5L130 80.5L91 99Z" fill="#FF8139"/>
<path d="M115.5 91.5C111.9 93.9 105.333 93.8333 102.5 93.5L121.5 84.5C121 85.8333 119.1 89.1 115.5 91.5Z" fill="#FFD300"/>
<path d="M116 0V51.0549M150 0V138" stroke="white"/>
<path d="M150 160C146.4 162.4 139.833 162.333 137 162L156 153C155.5 154.333 153.6 157.6 150 160Z" fill="#FFD300"/>
<path d="M127 167L144.5 106H158.5L166 148.5L127 167Z" fill="#FF8139"/>
<rect x="198" y="41" width="66" height="92" fill="white"/>
<rect x="206" y="52" width="50" height="70" fill="#E1E1E1"/>
<path d="M233 81.5C231.8 71.5 214.5 57.6667 206 52V103C215.5 100 234.2 91.5 233 81.5Z" fill="#272E80"/>
<path d="M240.5 85C235.7 75 248.833 68.5 256 66.5V122H227.5C248 113 246.5 97.5 240.5 85Z" fill="#FF8139"/>
<path d="M234.5 122.001C229.167 115.001 218 97.6011 216 84.0011C214 70.4011 241.5 85.6678 255.5 95.0011" stroke="black"/>
<path d="M274.054 329.898C273.018 329.74 272.123 329.919 271.368 330.435C270.62 330.953 270.04 331.819 269.63 333.034L274.654 333.8L274.395 335.497L269.206 334.705L269.108 335.198L269.015 335.804L268.972 336.237L273.467 336.922L273.21 338.608L268.902 337.951C269.023 340.314 270.185 341.664 272.388 342C273.438 342.16 274.549 342.097 275.72 341.809L275.379 344.046C274.349 344.347 273.194 344.4 271.916 344.205C270.146 343.935 268.781 343.231 267.819 342.092C266.866 340.955 266.36 339.442 266.302 337.554L264.627 337.299L264.884 335.613L266.383 335.842L266.423 335.431L266.485 335.023L266.616 334.31L265.118 334.082L265.377 332.385L267.029 332.637C267.59 330.836 268.512 329.496 269.796 328.617C271.08 327.738 272.611 327.435 274.388 327.706C275.857 327.93 277.123 328.453 278.185 329.277L276.945 331.196C275.899 330.465 274.935 330.033 274.054 329.898Z" fill="#FFD300"/>
</svg>
